X:1
T:Title
%%score ( 1 2 ) 3
L:1/8
Q:1/4=100
M:3/4
K:Bb
V:1 treble nm="Grand Piano, Unnamed-000"
V:2 treble 
V:3 bass nm="Choir Pad, Lower Lights"
V:1
 [DF]>[EG] [DF]3 [Fd] | [Ec][DB] [FA] [EG]3 | [EG]>[EG] [=Ec]3 [EB] | z2 c4 | %4
w: By~Philip~Paul~Bliss,~1871 * * *||||
 [DF]>[EG] [DF]3 [DB] | [Ec][Fd] [Ge] [EG]3 | [GB]>[Gc] [Fd]3 [DB] | [Ec]>[CA] [DB]4 | %8
w: ||||
 [DB]>[DB] [Ge]3 [Ge] | [Ge]>[Ge] [Ge] [Fd]3 | [Fd]>[Fd] [=Ed]3 [Ec] | z2 c4 | %12
w: ||||
 [DF]>[EG] [DF]3 [DB] | [Ec][Fd] [Ge] [EG]3 | [GB]>[Gc] [Fd]3 [DB] | [Ec]>[CA] [DB]4- | [DB]4 z2 |] %17
w: |||||
V:2
 x6 | x6 | x6 | [=EA][EB] F2 _E2 | x6 | x6 | x6 | x6 | x6 | x6 | x6 | [=EG]>[Ec] F2 _E2 | x6 | x6 | %14
 x6 | x6 | x6 |] %17
V:3
 [B,,B,]>[B,,B,] [B,,B,]3 [B,,B,] | [B,,B,][B,,B,] [E,B,] [E,B,]3 | [E,B,]>[E,G,] [C,G,]3 [C,C] | %3
 [C,C][C,B,] [F,A,]4 | [B,,B,]>[B,,B,] [B,,B,]3 [B,,B,] | [B,,B,][B,,B,] [E,B,] [E,B,]3 | %6
 [E,B,]>[E,B,] [F,B,]3 F, | [F,A,]>[F,C] [B,,B,]4 | B,>B, [E,B,]3 [E,B,] | %9
 [E,B,]>[E,B,] [B,,B,] [B,,B,]3 | B,>B, [G,C]3 [G,C] | [G,C]>[G,B,] [F,A,]4 | %12
 [B,,B,]>[B,,B,] [B,,B,]3 [B,,B,] | [B,,B,][B,,B,] [E,B,] [E,B,]3 | [E,B,]>[E,B,] [F,B,]3 F, | %15
 [F,A,]>[F,C] [B,,B,]4- | [B,,B,]4 z2 |] %17

